X:6
T:Parting of Friends, The
T:sGariunt na gCompanach
R:slow air
Z:id:hn-slowair-6
M:6/8
L:1/8
Q:3/8=40
K:Edor
B2d | e2f/e/ d2e/f/ | g2-g/g/ fz3/f/ | e2f/e/ d2e/f/ | g2a/b/ a/f/-f2 |
e2f/e/ d2B | e3 e3 | e2f/e/ d2B | e2e B2d | f2g {fgfgfg}f2e | He3 ||
B2B | e3 e2f/e/ | d2B/A/ Bf2 | e2f/e/ d2A | BE2- E2E/F/ | G2{AGF}{GABc} d2c/d/ |
B2B/A/ F3 | {FED}E3 {FED}EF2 | FE/D/E//F//E//D// {EFD}E3- | E3 ||

